!!!OTL: 482. Der erschlagene treulose Liebste.
!!!ARE: Europa, Mitteleuropa, Deutschland, Kuhlaendchen
!!!SCT: E0482
!!!TXL: @@DE
!!!YEM: Copyright 1995, estate of Helmut Schaffrath.
**kern	**text
*ICvox	*
*M2/4	*
*k[f#]	*
*G:	*
!LO:TX:a:t=Kuhländiſch.	!
{8d	'S_hat
=1	=1
8g	ſich
8g	ein
8b	Kuckuk
8b	ʒu
=2	=2
8g	Tod
8g	ge-
8d}	-ſchrien
{8d	an
=3	=3
8g	ei-
8g	-ner
8b/	hoh-
8b/	-len
=4	=4
4g	Wei-
8d}	-de,
{8dd	und
=5	=5
8dd	wenn
8dd	ein
8b	Maid
8g	ihr'n
=6	=6
8ee	Freier
8ee	lieb
8dd}	hat,
{8dd	ſo
=7	=7
8cc	thut
8cc	er
8b	von
8b	ihr
=8	=8
4a	ſchei-
8g}	-den.
==	==
!!!AGN: Liebes - Lied
!!!ONB: ESAC (Essen Associative Code) Database: ERK1
!!!AMT: simple duple
!!!AIN: vox
!!!EED: Helmut Schaffrath
!!!EEV: 1.0
!!!GTL: Liebeslieder [Alte (aus dem 13. bis 17. Jahrh.) mit ihrem jungen Nachwuchs]
!!!URL-scan: https://rosdok.uni-rostock.de/mcrviewer/recordIdentifier/rosdok_ppn745177662/iview2/phys_0307.iview2?x=-445.812200956939&y=1506.421814903617&scale=0.47662485746864275&rotation=0&layout=singlePageLayout
!!!ENC: Anna Maria Matuszewska
!!!EEV: 2024/10/12
*-	*-
